X:26
T:Reels 6 - The Old Morpeth Rant*
T: Roxburgh Castle
M:2/2
K: G
(3DEF | "G"G2GB dBGB | "C"c2ce "G"dBGB | "C"c2ec  "G"B2dB | "Am"AGAB "D7"AcBA |
"G"G2GB dBGB | "C"c2ce "G"dBG2 | "C"gfge "D7"dcBA | "G"B2G2 G2 (3def :|
"G"gdBd "C"edBd | "G"gdBd "C"edcB | "Am"c2ac "G"B2gB| "C"AGAB "D"AcBA |
"G"G2GB dBGB | "C"c2ce "G"dBG2 | "C"gfge "D7"dcBA | "G"B2G2 G2 :|
T:The Old Morpeth Rant
K:Dmaj
|:Ac|"D"d2AF DFAF|"G"DGBG "D/F#"DFAd|"Bm"f2ef "Em"gfed|"A"c2e2 egfe|
"D"d2AF DFAF|"Em"DGBG "Bm/F#"DFAd|"G"f2ef "Em"gfed|"A"A2d2 "D"d2:|
|:fa|"D"d'c'ba f2df|"Em"gfed "A"c2A2|"G"B2GB "Em"gfed|"A"c2A2 A2dc|
"G"B2GB gf"E/G#"ed|"A"c2Ac ag"F#/A#"fe|"Bm"dd'c'd' "G"bg"A"ec|e2d2 "D"d2:|
%%newpage

